packages/sources/icons/src/vitamix/ie-line.svg

<svg width="16" height="16" viewBox="0 0 16 16" fill="none" xmlns="http://www.w3.org/2000/svg">
<path fill-rule="evenodd" clip-rule="evenodd" d="M7.60324 11.9313C5.95311 11.6249 4.66951 10.3213 4.38868 8.66666H14.2967C14.3207 8.448 14.3334 8.22533 14.3334 8C14.3347 7.02972 14.0997 6.07372 13.6487 5.21466L13.6552 5.19897C13.6588 5.18994 13.6625 5.18083 13.6667 5.172C14.2914 3.674 14.3334 2.426 13.5834 1.67733C12.7714 0.866662 10.852 1.08266 8.78868 2.01733C5.81633 1.79156 3.1286 3.78123 2.47668 6.69C3.49802 5.448 4.56802 4.91733 4.75135 4.88066C4.49135 5.14733 4.24068 5.42666 4.00135 5.71533C3.37061 6.47572 2.81282 7.29377 2.33535 8.15866C1.04135 10.5067 0.564018 12.8473 1.46002 13.7407C2.33268 14.6133 3.91202 14.4073 5.74135 13.4133C7.27113 14.1456 9.03931 14.1965 10.6087 13.5534C12.178 12.9102 13.402 11.6332 13.978 10.038H11.7754C10.9193 11.4816 9.25338 12.2376 7.60324 11.9313ZM8.33306 3.99768C10.0293 3.99768 11.5412 5.06721 12.1061 6.66667H4.56006C5.12487 5.06721 6.6368 3.99768 8.33306 3.99768ZM5.33676 13.1993C4.10944 12.4902 3.17172 11.3707 2.68876 10.038C1.91476 11.5593 1.71543 12.8313 2.3761 13.4913C2.9181 14.0327 4.00143 13.9073 5.33476 13.2007L5.33676 13.1993ZM13.458 4.83866L13.448 4.86132C12.765 3.75053 11.7398 2.89147 10.5267 2.41332C11.848 1.80132 12.962 1.72266 13.5413 2.30132C14 2.84266 13.958 3.75732 13.458 4.83866Z" fill="#001018"/>
</svg>

<svg width="16" height="16" fill="none" xmlns="http://www.w3.org/2000/svg"><path fill-rule="evenodd" clip-rule="evenodd" d="M7.603 11.931A4.002 4.002 0 0 1 4.39 8.667h9.908a5.975 5.975 0 0 0-.648-3.452l.006-.016a.455.455 0 0 1 .012-.027c.624-1.498.666-2.746-.084-3.495-.812-.81-2.731-.594-4.794.34A6.003 6.003 0 0 0 2.477 6.69C3.498 5.448 4.568 4.917 4.75 4.88c-.26.267-.51.547-.75.835A15.75 15.75 0 0 0 2.335 8.16c-1.294 2.347-1.771 4.687-.875 5.58.873.872 2.452.666 4.281-.328a6.002 6.002 0 0 0 8.237-3.375h-2.203a4.002 4.002 0 0 1-4.172 1.893zm.73-7.933a4.001 4.001 0 0 1 3.773 2.669H4.56a4.001 4.001 0 0 1 3.773-2.67zm-2.996 9.201a6.02 6.02 0 0 1-2.648-3.161c-.774 1.521-.974 2.793-.313 3.453.542.542 1.625.416 2.959-.29l.002-.002zm8.121-8.36-.01.022a6.021 6.021 0 0 0-2.921-2.448c1.321-.612 2.435-.69 3.014-.112.459.542.417 1.456-.083 2.538z" fill="#001018"/></svg>
